Newaita/actions/22/zoom-2-to-1.svg

<svg height="22" viewBox="0 0 22 22" width="22" xmlns="http://www.w3.org/2000/svg"><g fill="#424242"><path d="m9.550781 13.832031c.105469 0 .207031-.039062.289063-.109375l2.726562-2.273437c.226563-.1875.226563-.535157 0-.722657l-2.726562-2.273437c-.308594-.257813-.773438-.039063-.773438.359375v4.550781c0 .265625.21875.476563.484375.46875zm0 0"/><path d="m6.027344 6.085938h.679687c.316407 0 .570313.203124.570313.453124v9.097657c0 .25-.253906.453125-.570313.453125h-.679687c-.316406 0-.570313-.203125-.570313-.453125v-9.097657c0-.25.253907-.453124.570313-.453124zm0 0"/><path d="m15.121094 8.359375h.683594c.3125 0 .566406.203125.566406.453125v4.546875c0 .253906-.253906.457031-.566406.457031h-.683594c-.3125 0-.566406-.203125-.566406-.457031v-4.546875c0-.25.253906-.453125.566406-.453125zm0 0"/><path d="m3.636719 1.992188c-1.007813 0-1.816407.808593-1.816407 1.816406v3.640625h1.816407v-2.730469c0-.503906.40625-.910156.910156-.910156h2.730469v-1.816406zm10.917969 0v1.816406h2.726562c.503906 0 .910156.40625.910156.910156v2.730469h1.820313v-3.640625c0-1.007813-.8125-1.816406-1.820313-1.816406zm-12.734376 12.734374v3.636719c0 1.007813.808594 1.820313 1.816407 1.820313h3.640625v-1.820313h-2.730469c-.503906 0-.910156-.40625-.910156-.910156v-2.726563zm16.371094 0v2.726563c0 .503906-.40625.910156-.910156.910156h-2.726562v1.820313h3.636718c1.007813 0 1.820313-.8125 1.820313-1.820313v-3.636719zm0 0"/></g></svg>

<?xml version="1.0" encoding="UTF-8"?>
<svg xmlns="http://www.w3.org/2000/svg" xmlns:xlink="http://www.w3.org/1999/xlink" width="22px" height="22px" viewBox="0 0 22 22" version="1.1">
<g id="surface1">
<path style=" stroke:none;fill-rule:nonzero;fill:rgb(25.882354%,25.882354%,25.882354%);fill-opacity:1;" d="M 9.550781 13.832031 C 9.65625 13.832031 9.757812 13.792969 9.839844 13.722656 L 12.566406 11.449219 C 12.792969 11.261719 12.792969 10.914062 12.566406 10.726562 L 9.839844 8.453125 C 9.53125 8.195312 9.066406 8.414062 9.066406 8.8125 L 9.066406 13.363281 C 9.066406 13.628906 9.285156 13.839844 9.550781 13.832031 Z M 9.550781 13.832031 "/>
<path style=" stroke:none;fill-rule:nonzero;fill:rgb(25.882354%,25.882354%,25.882354%);fill-opacity:1;" d="M 6.027344 6.085938 L 6.707031 6.085938 C 7.023438 6.085938 7.277344 6.289062 7.277344 6.539062 L 7.277344 15.636719 C 7.277344 15.886719 7.023438 16.089844 6.707031 16.089844 L 6.027344 16.089844 C 5.710938 16.089844 5.457031 15.886719 5.457031 15.636719 L 5.457031 6.539062 C 5.457031 6.289062 5.710938 6.085938 6.027344 6.085938 Z M 6.027344 6.085938 "/>
<path style=" stroke:none;fill-rule:nonzero;fill:rgb(25.882354%,25.882354%,25.882354%);fill-opacity:1;" d="M 15.121094 8.359375 L 15.804688 8.359375 C 16.117188 8.359375 16.371094 8.5625 16.371094 8.8125 L 16.371094 13.359375 C 16.371094 13.613281 16.117188 13.816406 15.804688 13.816406 L 15.121094 13.816406 C 14.808594 13.816406 14.554688 13.613281 14.554688 13.359375 L 14.554688 8.8125 C 14.554688 8.5625 14.808594 8.359375 15.121094 8.359375 Z M 15.121094 8.359375 "/>
<path style=" stroke:none;fill-rule:nonzero;fill:rgb(25.882354%,25.882354%,25.882354%);fill-opacity:1;" d="M 3.636719 1.992188 C 2.628906 1.992188 1.820312 2.800781 1.820312 3.808594 L 1.820312 7.449219 L 3.636719 7.449219 L 3.636719 4.71875 C 3.636719 4.214844 4.042969 3.808594 4.546875 3.808594 L 7.277344 3.808594 L 7.277344 1.992188 Z M 14.554688 1.992188 L 14.554688 3.808594 L 17.28125 3.808594 C 17.785156 3.808594 18.191406 4.214844 18.191406 4.71875 L 18.191406 7.449219 L 20.011719 7.449219 L 20.011719 3.808594 C 20.011719 2.800781 19.199219 1.992188 18.191406 1.992188 Z M 1.820312 14.726562 L 1.820312 18.363281 C 1.820312 19.371094 2.628906 20.183594 3.636719 20.183594 L 7.277344 20.183594 L 7.277344 18.363281 L 4.546875 18.363281 C 4.042969 18.363281 3.636719 17.957031 3.636719 17.453125 L 3.636719 14.726562 Z M 18.191406 14.726562 L 18.191406 17.453125 C 18.191406 17.957031 17.785156 18.363281 17.28125 18.363281 L 14.554688 18.363281 L 14.554688 20.183594 L 18.191406 20.183594 C 19.199219 20.183594 20.011719 19.371094 20.011719 18.363281 L 20.011719 14.726562 Z M 18.191406 14.726562 "/>
</g>
</svg>
